X:120
T:Millers Hornpipe TS.120
M:C|
L:1/8
Q:1/2=90
S:Thomas Sands’ MS,1810,Lincolnshire
R:.hornpipe
O:England;Lincolnshire
Z:vmp.Ruairidh Greig, 2011
K:D
“tr.sign added”(3ABc|d2AG FDFD|GBGB FAFA|GBGB FAFA|EDE”triplet sign added”FE2(3ABc|
d2AG FDFD|GBGB FAFA|Adfa gece|d2d2d2:|
|:fg|afdf gece|fdBd cecA|GBGB FAFA|G2E2E2Ac|
dfaf cege|Bdfd Acec|dfeg fdec|d2d2d2:|]

